usr/share/icons/biglinux-icons-material-dark/22/actions/skrooge_type.svg

<svg xmlns="http://www.w3.org/2000/svg" viewBox="0 0 22 22">
<defs id="defs3051">
<style id="current-color-scheme" type="text/css">
.ColorScheme-Text{color:#dedede}
</style>
</defs>
<path d="M7 5v4H3v1h4v4h1v-4h3.979V9H8V5z" class="ColorScheme-Text" style="fill:currentColor;fill-opacity:1;stroke:none"/>
<path d="M12 16v1h7v-1z" style="fill:#da4453;fill-opacity:1;stroke:none"/>
</svg>

<svg xmlns="http://www.w3.org/2000/svg" viewBox="0 0 22 22">
  <defs id="defs3051">
    <style type="text/css" id="current-color-scheme">
      .ColorScheme-Text {
        color:#dedede;
      }
      .ColorScheme-Highlight {
        color:#3daee9;
      }
      </style>
  </defs>
 <path 
     style="fill:currentColor;fill-opacity:1;stroke:none" 
     d="M 7 5 L 7 9 L 3 9 L 3 10 L 7 10 L 7 14 L 8 14 L 8 10 L 11.978516 10 L 11.978516 9 L 8 9 L 8 5 L 7 5 z "
     class="ColorScheme-Text"
     />
 <path 
     style="fill:#da4453;fill-opacity:1;stroke:none" 
     d="M 12 16 L 12 17 L 19 17 L 19 16 L 12 16 z "
     />
</svg>
